svg/u1f30a.svg

<svg viewBox="0 0 128 128" xmlns="http://www.w3.org/2000/svg">
  <radialGradient id="SVGID_1_" cx="59.8514" cy="-1.4049" gradientUnits="userSpaceOnUse" r="113.7073">
    <stop offset="0.4232" stop-color="#45D6F0"/>
    <stop offset="0.5178" stop-color="#41CDE9"/>
    <stop offset="0.6737" stop-color="#37B4D7"/>
    <stop offset="0.8704" stop-color="#278BBA"/>
    <stop offset="1" stop-color="#1B6DA4"/>
  </radialGradient>
  <path d="M14.66,115.74c1.37,1.06,5.32-5.77,20.2-6.68c15.93-0.98,33.56,11.69,57.71,11.69 c21.41,0,32.5-10.48,31.74-12.15c-0.51-1.11-8.96-3.15-18.68-8.2c-11.69-6.07-24-12.15-33.41-25.82 c-6.03-8.75-10.33-18.83-4.4-26.73c5.92-7.9,20.96-4.25,20.96-4.25l-20.5-22.17L29.25,32.07L9.5,81.58l2.13,25.21L14.66,115.74z" fill="url(#SVGID_1_)"/>
  <path d="M59.26,36.11c0,0,4.77,1.52,11.16,4.85c10.63,5.55,17.07,14.28,23.64,14.82 c6.82,0.55,10.31-3.38,8.82-11.58c-1.39-7.65-12.68-16.63-12.68-16.63s10.31,1.94,10.31-3.97c0-6.07-5.56-8.99-14.31-12 c-5.83-2-21.51-6.44-42.53,1.52c-9.04,3.42-20.08,9.74-28.46,21.85C4.25,50.81,2.03,71.41,4.11,87.05 c2.52,18.89,10.38,28.63,10.57,28.71c0.19,0.08,1.22-22.21,10.01-31.88c7.49-8.24,15.15-4.86,24.25-5.31 c10.73-0.53,15.52-11.61,7.33-20.06c-7.03-7.26-18.68-6.61-18.68-6.61s3.86-1.54,11.19-2.2c8.42-0.77,10.08-5.66,10.68-7.49 C60.79,38.17,59.26,36.11,59.26,36.11z" fill="#1B6DA4"/>
  <path d="M38.15,36.3c-0.56-3.3,9.16-6.28,19.34-4.68c15.84,2.49,28.38,16.94,33.7,19.05 c7.84,3.12,10.6-3.29,6.67-10.23c-4.05-7.17-14.77-13.27-14.37-15.64c0.72-4.21,11.7,2.2,12.37-2.48c0.45-3.1-7.75-7.56-15.54-9.55 c-6.27-1.6-19.44-3.57-37.64,4.36C19.02,27.46,8.79,48.01,7.1,69.54c-1.6,20.42,6.2,35.64,6.2,35.64s0.53-15.24,8.17-23.63 c5.58-6.12,12.74-8.42,20.51-6.94c12.96,2.48,18.61-6.89,12.38-13.66c-4.08-4.43-9.31-5.81-14.72-5.99 c-9.35-0.3-14.38,2.83-14.65,1.77c-0.4-1.61,4.67-5.34,11.1-8.02c8.46-3.52,18.67-1.11,20.27-8.19c0.78-3.45-1.17-5.34-6.75-5.75 C42.56,34.26,38.19,36.54,38.15,36.3z" fill="#FFFFFF"/>
</svg>

<svg viewBox="0 0 128 128" xmlns="http://www.w3.org/2000/svg">
  <defs>
    <radialGradient id="SVGID_1_" cx="59.8514" cy="-1.4049" gradientUnits="userSpaceOnUse" r="113.7073">
      <stop offset="0.4232" stop-color="#45D6F0"/>
      <stop offset="0.5178" stop-color="#41CDE9"/>
      <stop offset="0.6737" stop-color="#37B4D7"/>
      <stop offset="0.8704" stop-color="#278BBA"/>
      <stop offset="1" stop-color="#1B6DA4"/>
    </radialGradient>
  </defs>
  <path d="M14.66,115.74 C16.03,116.8 19.98,109.97 34.86,109.06 C50.79,108.08 68.42,120.75 92.57,120.75 C113.98,120.75 125.07,110.27 124.31,108.6 C123.8,107.49 115.35,105.45 105.63,100.4 C93.94,94.33 81.63,88.25 72.22,74.58 C66.19,65.83 61.89,55.75 67.82,47.85 C73.74,39.95 88.78,43.6 88.78,43.6 L68.28,21.43 L29.25,32.07 L9.5,81.58 L11.63,106.79 L14.66,115.74 Z" fill="url(#SVGID_1_)"/>
  <path d="M59.26,36.11 C59.26,36.11 64.03,37.63 70.42,40.96 C81.05,46.51 87.49,55.24 94.06,55.78 C100.88,56.33 104.37,52.4 102.88,44.2 C101.49,36.55 90.2,27.57 90.2,27.57 C90.2,27.57 100.51,29.51 100.51,23.6 C100.51,17.53 94.95,14.61 86.2,11.6 C80.37,9.6 64.69,5.16 43.67,13.12 C34.63,16.54 23.59,22.86 15.21,34.97 C4.25,50.81 2.03,71.41 4.11,87.05 C6.63,105.94 14.49,115.68 14.68,115.76 C14.87,115.84 15.9,93.55 24.69,83.88 C32.18,75.64 39.84,79.02 48.94,78.57 C59.67,78.04 64.46,66.96 56.27,58.51 C49.24,51.25 37.59,51.9 37.59,51.9 C37.59,51.9 41.45,50.36 48.78,49.7 C57.2,48.93 58.86,44.04 59.46,42.21 C60.79,38.17 59.26,36.11 59.26,36.11 Z" fill="#1B6DA4"/>
  <path d="M38.15,36.3 C37.59,33 47.31,30.02 57.49,31.62 C73.33,34.11 85.87,48.56 91.19,50.67 C99.03,53.79 101.79,47.38 97.86,40.44 C93.81,33.27 83.09,27.17 83.49,24.8 C84.21,20.59 95.19,27 95.86,22.32 C96.31,19.22 88.11,14.76 80.32,12.77 C74.05,11.17 60.88,9.2 42.68,17.13 C19.02,27.46 8.79,48.01 7.1,69.54 C5.5,89.96 13.3,105.18 13.3,105.18 C13.3,105.18 13.83,89.94 21.47,81.55 C27.05,75.43 34.21,73.13 41.98,74.61 C54.94,77.09 60.59,67.72 54.36,60.95 C50.28,56.52 45.05,55.14 39.64,54.96 C30.29,54.66 25.26,57.79 24.99,56.73 C24.59,55.12 29.66,51.39 36.09,48.71 C44.55,45.19 54.76,47.6 56.36,40.52 C57.14,37.07 55.19,35.18 49.61,34.77 C42.56,34.26 38.19,36.54 38.15,36.3 Z" fill="#FFFFFF"/>
</svg>
